X: 21
T: Missa Ave sanctissima Maria / Gloria
N: Derived from Rue1005b-Missa_Ave_sanctissima_Maria-Gloria.krn
C: Pierre de la Rue
%%abc-version 2.0
%%abcx-abcm2ps-target-version 5.9.1 (29 Sep 2008)
%%abc-creator hum2abc beta
%%abcx-conversion-date 2019/02/17 08:01:10
%%abc-edited-by Jesse Rodin
%%abc-edited-by Chris Gage 12-13-2012
%%abcx-initial-encoding-date 2013/07/18/
%%humdrum-veritas 3617631979
%%humdrum-veritas-data 3520394583
%%linebreak <none>
%%barnumbers 0
L: 1/4
M: 2/1
Q: 1/2=120
V: 1 clef=treble
V: 2 clef=treble
V: 3 clef=treble-8
V: 4 clef=treble-8
V: 5 clef=bass
V: 6 clef=bass
K: C
[V:1] z8 | 
[V:2] G8 | 
[V:3] z8 | 
[V:4] z4G4- | 
[V:5] z8 | 
[V:6] G,8 | 
[V:1] z8 | 
[V:2] G4E4- | 
[V:3] z8 | 
[V:4] G2G2G2G2 | 
[V:5] z8 | 
[V:6] E,4C,4- | 
[V:1] z8 | 
[V:2] E2DCB,4 | 
[V:3] z8 | 
[V:4] G4z2G2 | 
[V:5] z8 | 
[V:6] C,2D,2E,4 | 
[V:1] c8 | 
[V:2] C3DE2F2 | 
[V:3] z4c4- | 
[V:4] E2F2E2c2 | 
[V:5] C8 | 
[V:6] A,,8- | 
[V:1] c4A4- | 
[V:2] E2F4ED | 
[V:3] c2c2c2c2 | 
[V:4] c2A3GF2- | 
[V:5] A,4F,4- | 
[V:6] A,,8- | 
[V:1] A2GFE4 | 
[V:2] CA,D4^C2 | 
[V:3] c4z2c2 | 
[V:4] F2EDE4 | 
[V:5] F,2G,2A,4 | 
[V:6] A,,8 | 
[V:1] F3GA2_B2 | 
[V:2] D8 | 
[V:3] A2_B2A2f2 | 
[V:4] D8 | 
[V:5] D,8- | 
[V:6] z8 | 
[V:1] A2_B4AG | 
[V:2] z8 | 
[V:3] f2d3c_B2- | 
[V:4] z8 | 
[V:5] D,8- | 
[V:6] z8 | 
[V:1] FDG4^F2 | 
[V:2] D4D2D2 | 
[V:3] B2AGA4 | 
[V:4] z8 | 
[V:5] D,8 | 
[V:6] z4D,4 | 
[V:1] G8 | 
[V:2] C2E4DC | 
[V:3] G8 | 
[V:4] z8 | 
[V:5] z8 | 
[V:6] E,2E,2C,4 | 
[V:1] z8 | 
[V:2] B,2B,2C2E2- | 
[V:3] z8 | 
[V:4] z8 | 
[V:5] z8 | 
[V:6] z2D,2E,2G,2- | 
[V:1] G4G2G2 | 
[V:2] E2D3^CC2 | 
[V:3] z8 | 
[V:4] z8 | 
[V:5] z4G,4 | 
[V:6] G,F,E,D,E,4 | 
[V:1] F2A4GF | 
[V:2] D8 | 
[V:3] z8 | 
[V:4] z8 | 
[V:5] A,2A,2F,4 | 
[V:6] D,8 | 
[V:1] E2E2F2A2- | 
[V:2] z8 | 
[V:3] z8 | 
[V:4] z8 | 
[V:5] z2G,2A,2C2- | 
[V:6] z8 | 
[V:1] A2G3^FF2 | 
[V:2] z8 | 
[V:3] z8 | 
[V:4] z8 | 
[V:5] CB,A,G,A,4 | 
[V:6] z4D,2D,2 | 
[V:1] G8 | 
[V:2] z8 | 
[V:3] z8 | 
[V:4] z4G2G2 | 
[V:5] G,8 | 
[V:6] E,2E,2C,4 | 
[V:1] z8 | 
[V:2] z8 | 
[V:3] z8 | 
[V:4] A2A2F4 | 
[V:5] z8 | 
[V:6] z2D,4D,2 | 
[V:1] z8 | 
[V:2] z8 | 
[V:3] z8 | 
[V:4] z2G3AB2 | 
[V:5] z4G,2G,2 | 
[V:6] E,3D,C,2B,,2 | 
[V:1] z8 | 
[V:2] z8 | 
[V:3] z4c2c2 | 
[V:4] c4A4 | 
[V:5] A,2A,2F,4 | 
[V:6] A,,4A,,4 | 
[V:1] z8 | 
[V:2] G3GG2G2 | 
[V:3] d2d2B4 | 
[V:4] B4G4 | 
[V:5] z2G,4G,2 | 
[V:6] G,,8 | 
[V:1] z8 | 
[V:2] C2E3DC2- | 
[V:3] z2c3de2 | 
[V:4] z8 | 
[V:5] A,3G,F,2E,2 | 
[V:6] z8 | 
[V:1] z8 | 
[V:2] C2B,A,B,2CB, | 
[V:3] f4d4 | 
[V:4] z8 | 
[V:5] D,4D,4 | 
[V:6] z8 | 
[V:1] c3cc2c2 | 
[V:2] C2D2E2E2 | 
[V:3] e4c4 | 
[V:4] z8 | 
[V:5] C,8 | 
[V:6] z8 | 
[V:1] F2A3GF2- | 
[V:2] F3EC2D2- | 
[V:3] z8 | 
[V:4] z8 | 
[V:5] z8 | 
[V:6] z8 | 
[V:1] F2EDE2FE | 
[V:2] D2CB,C2DC | 
[V:3] z8 | 
[V:4] z8 | 
[V:5] z8 | 
[V:6] z8 | 
[V:1] F2G2A2A2 | 
[V:2] D2B,2A,4 | 
[V:3] z8 | 
[V:4] z2G4F2 | 
[V:5] z8 | 
[V:6] z8 | 
[V:1] _B3AF2G2- | 
[V:2] G,4z4 | 
[V:3] z8 | 
[V:4] G3A_BA_B2- | 
[V:5] z8 | 
[V:6] z8 | 
[V:1] G2FEF2GF | 
[V:2] z8 | 
[V:3] z8 | 
[V:4] B2AGA4 | 
[V:5] z8 | 
[V:6] z8 | 
[V:1] G2E2D4 | 
[V:2] z8 | 
[V:3] z2c4B2 | 
[V:4] G4G4- | 
[V:5] z8 | 
[V:6] G,,4G,,4 | 
[V:1] C4z4 | 
[V:2] z8 | 
[V:3] c3dede2- | 
[V:4] G2G2E3F | 
[V:5] z8 | 
[V:6] C,4C,4- | 
[V:1] z8 | 
[V:2] z8 | 
[V:3] e2dcd4 | 
[V:4] G2A4^G2 | 
[V:5] z8 | 
[V:6] C,2B,,A,,B,,4 | 
[V:1] z8 | 
[V:2] z8 | 
[V:3] c4c4- | 
[V:4] A8- | 
[V:5] C,4C,4 | 
[V:6] A,,8- | 
[V:1] z8 | 
[V:2] z8 | 
[V:3] c2c2A3B | 
[V:4] A8 | 
[V:5] F,4F,4- | 
[V:6] A,,8 | 
[V:1] z8 | 
[V:2] z4G4 | 
[V:3] c2d4^c2 | 
[V:4] z4G4 | 
[V:5] F,2E,D,E,4 | 
[V:6] z8 | 
[V:1] z8 | 
[V:2] F2A2A2G2 | 
[V:3] d8- | 
[V:4] A4A2B2 | 
[V:5] D,8- | 
[V:6] z2D,2D,2G,,2 | 
[V:1] z8 | 
[V:2] F2G4FE | 
[V:3] d8 | 
[V:4] A2B4AG | 
[V:5] D,8 | 
[V:6] D,2G,,3A,,B,,C, | 
[V:1] z4c4 | 
[V:2] D2B,2A,4 | 
[V:3] z4c4 | 
[V:4] F2G3^F^FE | 
[V:5] z8 | 
[V:6] D,2G,,2A,,4 | 
[V:1] B2d2d2c2 | 
[V:2] B,3G,G,4 | 
[V:3] d4d2e2 | 
[V:4] G8 | 
[V:5] z2G,2G,2C,2 | 
[V:6] G,,4z4 | 
[V:1] B2c4BA | 
[V:2] z8 | 
[V:3] d2e4dc | 
[V:4] z8 | 
[V:5] G,2C,3D,E,F, | 
[V:6] z8 | 
[V:1] G2E2D4 | 
[V:2] z4G4 | 
[V:3] B2c3BBA | 
[V:4] G6G2 | 
[V:5] G,2C,2D,4 | 
[V:6] z4G,,4 | 
[V:1] E3CC4 | 
[V:2] E4E3F | 
[V:3] c8 | 
[V:4] C2c4c2 | 
[V:5] C,4z4 | 
[V:6] C,4C,3D, | 
[V:1] z8 | 
[V:2] G2A4^G2 | 
[V:3] z8 | 
[V:4] c2A2B4 | 
[V:5] z8 | 
[V:6] E,2A,,2E,4 | 
[V:1] z4c4 | 
[V:2] A4A4- | 
[V:3] c6c2 | 
[V:4] A2F2E4 | 
[V:5] z4C,4 | 
[V:6] A,,8 | 
[V:1] A4A3B | 
[V:2] A4A4 | 
[V:3] F2f4f2 | 
[V:4] D8 | 
[V:5] F,4F,3G, | 
[V:6] z8 | 
[V:1] c2d4^c2 | 
[V:2] A2A3GFE | 
[V:3] f2d2e4 | 
[V:4] z8 | 
[V:5] A,2D,2A,4 | 
[V:6] z8 | 
[V:1] d4d4- | 
[V:2] F2G4^F2 | 
[V:3] d2B2A4 | 
[V:4] z4d4- | 
[V:5] D,8 | 
[V:6] D,8 | 
[V:1] d4d4 | 
[V:2] G4G4 | 
[V:3] G8 | 
[V:4] d2c2B3A | 
[V:5] z8 | 
[V:6] G,,8- | 
[V:1] d2d3cBA | 
[V:2] G6FE | 
[V:3] z8 | 
[V:4] G8 | 
[V:5] z8 | 
[V:6] G,,8 | 
[V:1] B2c4B2 | 
[V:2] D3CD4 | 
[V:3] z4g4- | 
[V:4] G8 | 
[V:5] G,8 | 
[V:6] G,,8 | 
[V:1] c4c4 | 
[V:2] C8 | 
[V:3] g2f2e3d | 
[V:4] E8- | 
[V:5] C,8- | 
[V:6] A,,8- | 
[V:1] c6BA | 
[V:2] z8 | 
[V:3] c8 | 
[V:4] E8 | 
[V:5] C,8 | 
[V:6] A,,8 | 
[V:1] G3FG4 | 
[V:2] z8 | 
[V:3] c8 | 
[V:4] z8 | 
[V:5] C,8 | 
[V:6] z8 | 
[V:1] F8 | 
[V:2] z8 | 
[V:3] A8- | 
[V:4] z8 | 
[V:5] D,8- | 
[V:6] z4A,4 | 
[V:1] z8 | 
[V:2] A4F3G | 
[V:3] A8 | 
[V:4] z4A4 | 
[V:5] D,8 | 
[V:6] F,3G,A,2A,2 | 
[V:1] z8 | 
[V:2] A2A2G2E2 | 
[V:3] z8 | 
[V:4] F4G4 | 
[V:5] z8 | 
[V:6] D,2F,2E,4 | 
[V:1] z8 | 
[V:2] F2G4^F2 | 
[V:3] z8 | 
[V:4] A2B2A4 | 
[V:5] z4D4 | 
[V:6] D,4D,4 | 
[V:1] d4B3c | 
[V:2] G8 | 
[V:3] z4d4 | 
[V:4] G8 | 
[V:5] B,3CD2D2 | 
[V:6] G,,8 | 
[V:1] d2d2c2A2 | 
[V:2] z8 | 
[V:3] B4c4 | 
[V:4] z8 | 
[V:5] G,2B,2A,4 | 
[V:6] z8 | 
[V:1] B2c4B2 | 
[V:2] z2G2G3F | 
[V:3] d2e2d4 | 
[V:4] z4z2G2 | 
[V:5] G,4G,4 | 
[V:6] G,,4G,,4 | 
[V:1] c8 | 
[V:2] EDE4DC | 
[V:3] c8 | 
[V:4] G4c4 | 
[V:5] C,8 | 
[V:6] C,6B,,A,, | 
[V:1] z8 | 
[V:2] DCB,A,B,4 | 
[V:3] z8 | 
[V:4] B2A3^G^G2 | 
[V:5] z8 | 
[V:6] G,,2A,,2E,4 | 
[V:1] z2c2c3B | 
[V:2] A,8 | 
[V:3] z4z2c2 | 
[V:4] A8 | 
[V:5] C,4C,4 | 
[V:6] A,,8 | 
[V:1] AGA4GF | 
[V:2] z8 | 
[V:3] c4f4 | 
[V:4] z8 | 
[V:5] F,6E,D, | 
[V:6] z8 | 
[V:1] GFEDE4 | 
[V:2] z8 | 
[V:3] e2d3^c^c2 | 
[V:4] z8 | 
[V:5] C,2D,2A,4 | 
[V:6] z8 | 
[V:1] D8 | 
[V:2] z2A2A3G | 
[V:3] d8 | 
[V:4] z2D3EFG | 
[V:5] D,8 | 
[V:6] A,4A,2F,2- | 
[V:1] z8 | 
[V:2] FEF4ED | 
[V:3] z8 | 
[V:4] A2A2F2A2- | 
[V:5] z8 | 
[V:6] F,2D,4C,B,, | 
[V:1] z8 | 
[V:2] C2D4^C2 | 
[V:3] z8 | 
[V:4] AGF2E4 | 
[V:5] z8 | 
[V:6] A,,8 | 
[V:1] z2d2d3c | 
[V:2] D8- | 
[V:3] z2G3ABc | 
[V:4] D8- | 
[V:5] D4D2B,2- | 
[V:6] D,2G,,2G,,2G,,2- | 
[V:1] BAB4AG | 
[V:2] D8 | 
[V:3] d2d2B2d2- | 
[V:4] D8 | 
[V:5] B,2G,4F,E, | 
[V:6] G,,2G,,3A,,B,,C, | 
[V:1] F2G4^F2 | 
[V:2] D8- | 
[V:3] dcB2A4 | 
[V:4] z4d4 | 
[V:5] D,8- | 
[V:6] D,2G,,2D,4 | 
[V:1] G8- | 
[V:2] D8- | 
[V:3] G8- | 
[V:4] B8- | 
[V:5] D,8- | 
[V:6] G,,8 | 
[V:1] G8 | 
[V:2] D8- | 
[V:3] G8- | 
[V:4] B8- | 
[V:5] D,8- | 
[V:6] G,,8- | 
[V:1] G8 ||  
[V:2] D8 ||  
[V:3] G8 ||  
[V:4] B8 ||  
[V:5] D,8 ||  
[V:6] G,,8 ||  
[V:1]  [K:C] [K:clef=treble][M:4/2]z8 | 
[V:2]  [K:C] [K:clef=treble][M:4/2]z8 | 
[V:3]  [K:C] [K:clef=treble-8][M:4/2]z8 | 
[V:4]  [K:C] [K:clef=treble-8][M:4/2]z8 | 
[V:5]  [K:C] [K:clef=bass][M:4/2]z8 | 
[V:6]  [K:C] [K:clef=bass][M:4/2]G,4E,3F, | 
[V:1] z8 | 
[V:2] z8 | 
[V:3] z8 | 
[V:4] z8 | 
[V:5] z8 | 
[V:6] G,2A,4G,2 | 
[V:1] z8 | 
[V:2] z8 | 
[V:3] z8 | 
[V:4] z8 | 
[V:5] C4A,3B, | 
[V:6] A,2A,2F,2A,2- | 
[V:1] z8 | 
[V:2] z8 | 
[V:3] z8 | 
[V:4] z8 | 
[V:5] C2D4C2 | 
[V:6] A,G,F,2E,4 | 
[V:1] z8 | 
[V:2] z8 | 
[V:3] z8 | 
[V:4] z8 | 
[V:5] D2D2B,2D2- | 
[V:6] D,8- | 
[V:1] z8 | 
[V:2] z8 | 
[V:3] z8 | 
[V:4] z8 | 
[V:5] DCB,2A,4 | 
[V:6] D,8 | 
[V:1] z8 | 
[V:2] z8 | 
[V:3] z8 | 
[V:4] z8 | 
[V:5] G,8- | 
[V:6] z4G,4 | 
[V:1] z8 | 
[V:2] z8 | 
[V:3] z8 | 
[V:4] z8 | 
[V:5] G,8 | 
[V:6] G,3F,E,2E,2 | 
[V:1] z8 | 
[V:2] z8 | 
[V:3] z8 | 
[V:4] z8 | 
[V:5] z4C4 | 
[V:6] F,3G,A,_B,A,2- | 
[V:1] z8 | 
[V:2] z8 | 
[V:3] z8 | 
[V:4] z8 | 
[V:5] C3B,A,2A,2 | 
[V:6] A,2G,3F,F,2 | 
[V:1] z8 | 
[V:2] z8 | 
[V:3] z8 | 
[V:4] z8 | 
[V:5] B,3CDED2- | 
[V:6] G,6F,E, | 
[V:1] z8 | 
[V:2] z8 | 
[V:3] z8 | 
[V:4] z8 | 
[V:5] D2C3B,B,2 | 
[V:6] F,E,D,C,D,4 | 
[V:1] z8 | 
[V:2] z8 | 
[V:3] z8 | 
[V:4] z8 | 
[V:5] C6B,A, | 
[V:6] C,8 | 
[V:1] z8 | 
[V:2] z8 | 
[V:3] z8 | 
[V:4] z8 | 
[V:5] B,A,G,F,G,4 | 
[V:6] z4C,4 | 
[V:1] z8 | 
[V:2] z8 | 
[V:3] z8 | 
[V:4] z8 | 
[V:5] F,8 | 
[V:6] D,4F,4 | 
[V:1] z8 | 
[V:2] z8 | 
[V:3] z8 | 
[V:4] z8 | 
[V:5] z4F,4 | 
[V:6] E,4D,4 | 
[V:1] z8 | 
[V:2] z8 | 
[V:3] z8 | 
[V:4] z8 | 
[V:5] G,4_B,4 | 
[V:6] E,3F,G,2E,2 | 
[V:1] z8 | 
[V:2] z8 | 
[V:3] z8 | 
[V:4] z8 | 
[V:5] A,4G,4 | 
[V:6] F,4E,4 | 
[V:1] z8 | 
[V:2] z8 | 
[V:3] z8 | 
[V:4] z8 | 
[V:5] A,3B,C2A,2 | 
[V:6] z2A,2A,2A,2- | 
[V:1] z8 | 
[V:2] z8 | 
[V:3] z8 | 
[V:4] z8 | 
[V:5] B,4A,4 | 
[V:6] A,2G,2F,2A,2- | 
[V:1] z8 | 
[V:2] z8 | 
[V:3] z8 | 
[V:4] z8 | 
[V:5] z2D2D2D2- | 
[V:6] A,G,F,E,D,2F,2 | 
[V:1] z8 | 
[V:2] z8 | 
[V:3] z8 | 
[V:4] z8 | 
[V:5] D2C2B,2D2- | 
[V:6] E,4D,4 | 
[V:1] z8 | 
[V:2] z8 | 
[V:3] z8 | 
[V:4] z8 | 
[V:5] DCB,A,G,2B,2 | 
[V:6] z2G,3F,E,D, | 
[V:1] z8 | 
[V:2] z8 | 
[V:3] z8 | 
[V:4] z8 | 
[V:5] A,4G,4 | 
[V:6] C,2A,,2B,,4 | 
[V:1] z8 | 
[V:2] z8 | 
[V:3] z8 | 
[V:4] z8 | 
[V:5] z2C3B,A,G, | 
[V:6] A,,3B,,C,D,E,2- | 
[V:1] z8 | 
[V:2] z8 | 
[V:3] z8 | 
[V:4] z8 | 
[V:5] F,2D,2E,4 | 
[V:6] E,D,D,4^C,2 | 
[V:1] z8 | 
[V:2] z8 | 
[V:3] z8 | 
[V:4] z8 | 
[V:5] D,3E,F,G,A,2- | 
[V:6] D,4B,,2C,2- | 
[V:1] z8 | 
[V:2] z8 | 
[V:3] z8 | 
[V:4] z8 | 
[V:5] A,G,G,4^F,2 | 
[V:6] C,B,,A,,G,,A,,4 | 
[V:1] z8 ||  
[V:2] z8 ||  
[V:3] z8 ||  
[V:4] z8 ||  
[V:5] G,8 ||  
[V:6] G,,8 ||  
[V:1]  [K:C] [K:clef=treble][M:4/2]z8 | 
[V:2]  [K:C] [K:clef=treble][M:4/2]G4G3F | 
[V:3]  [K:C] [K:clef=treble-8][M:4/2]z8 | 
[V:4]  [K:C] [K:clef=treble-8][M:4/2]G8 | 
[V:5]  [K:C] [K:clef=bass][M:4/2]z8 | 
[V:6]  [K:C] [K:clef=bass][M:4/2]G,,3A,,B,,2C,2- | 
[V:1] z8 | 
[V:2] E2DCB,4 | 
[V:3] z8 | 
[V:4] G8 | 
[V:5] z8 | 
[V:6] C,2B,,A,,E,4 | 
[V:1] c4c3B | 
[V:2] A,4z2A,2 | 
[V:3] c8 | 
[V:4] A8- | 
[V:5] C,3D,E,2F,2- | 
[V:6] A,,8- | 
[V:1] A2GFE4 | 
[V:2] C2D2E4 | 
[V:3] c8 | 
[V:4] A8 | 
[V:5] F,2E,D,A,4 | 
[V:6] A,,8 | 
[V:1] D4z2D2 | 
[V:2] F6D2 | 
[V:3] d8- | 
[V:4] A4B2A2- | 
[V:5] D,8- | 
[V:6] z8 | 
[V:1] F2G2A4 | 
[V:2] D8 | 
[V:3] d8 | 
[V:4] A2G3^F^F2 | 
[V:5] D,8 | 
[V:6] z4D,4 | 
[V:1] _B6G2 | 
[V:2] z2D2G2G2 | 
[V:3] d4e2d2- | 
[V:4] G8- | 
[V:5] z8 | 
[V:6] G,,4G,,4 | 
[V:1] G8 | 
[V:2] E2G3FED | 
[V:3] d2c3BB2 | 
[V:4] G8 | 
[V:5] z4G,4 | 
[V:6] C,4G,,4 | 
[V:1] z2G2c2c2 | 
[V:2] C2E2E2E2 | 
[V:3] c8- | 
[V:4] z8 | 
[V:5] C,4C,4 | 
[V:6] C,8 | 
[V:1] A2c3BAG | 
[V:2] F4E4 | 
[V:3] c8 | 
[V:4] z8 | 
[V:5] F,4C,4 | 
[V:6] z8 | 
[V:1] F2A2A2A2 | 
[V:2] D3EFGA2- | 
[V:3] z8 | 
[V:4] d6d2 | 
[V:5] F,8 | 
[V:6] D,6D,2 | 
[V:1] _B4A4 | 
[V:2] A2G3^FF2 | 
[V:3] z8 | 
[V:4] d2d2A4 | 
[V:5] z8 | 
[V:6] D,2D,2D,4 | 
[V:1] G3ABcd2- | 
[V:2] G8 | 
[V:3] g6g2 | 
[V:4] B8 | 
[V:5] G,6G,2 | 
[V:6] G,,8- | 
[V:1] d2c3BB2 | 
[V:2] z8 | 
[V:3] g2g2d4 | 
[V:4] z8 | 
[V:5] G,2G,2G,4 | 
[V:6] G,,8 | 
[V:1] c8 | 
[V:2] z4(3G2G2G2 | 
[V:3] e8 | 
[V:4] (3G2G2G2(3E3FG2 | 
[V:5] C,8- | 
[V:6] z8 | 
[V:1] z8 | 
[V:2] (3:2:5E3FG2A4G2 | 
[V:3] z8 | 
[V:4] (3:2:4A4G2F2E4 | 
[V:5] C,8 | 
[V:6] (3:2:5C,2C,2C,2A,,4C,2 | 
[V:1] z4(3c2c2c2 | 
[V:2] (3:2:2E2F4E4 | 
[V:3] (3c2c2c2(3A3Bc2 | 
[V:4] G4z4 | 
[V:5] z8 | 
[V:6] (3:2:2C,2F,,4C,4 | 
[V:1] (3:2:5A3Bc2d4c2 | 
[V:2] z8 | 
[V:3] (3:2:4d4c2B2A4 | 
[V:4] z8 | 
[V:5] (3:2:5F,2F,2F,2D,4F,2 | 
[V:6] z8 | 
[V:1] (3:2:2A2_B4A4 | 
[V:2] z8 | 
[V:3] d4z4 | 
[V:4] z4(3A2A2A2 | 
[V:5] (3:2:2F,2_B,,4F,4 | 
[V:6] z8 | 
[V:1] z8 | 
[V:2] (3A2A2A2(3D3EF2 | 
[V:3] z8 | 
[V:4] (3:2:5D4D2F3GA2 | 
[V:5] z8 | 
[V:6] z4(3D,2D,2D,2 | 
[V:1] z8 | 
[V:2] (3:2:2G4^F2G4 | 
[V:3] z4(3d2d2d2 | 
[V:4] (3:2:2_B2A4G4 | 
[V:5] z8 | 
[V:6] (3:2:2G,,2D,4G,,4 | 
[V:1] (3d2d2d2(3G3AB2 | 
[V:2] z8 | 
[V:3] (3:2:5G4G2B3cd2 | 
[V:4] z8 | 
[V:5] z4(3G,2G,2G,2 | 
[V:6] z8 | 
[V:1] (3:2:2c4B2c4 | 
[V:2] z4(3G2G2G2 | 
[V:3] (3:2:2e2d4c4 | 
[V:4] (3G2G2G2(3E3FG2 | 
[V:5] (3:2:2C,2G,4C,4 | 
[V:6] z8 | 
[V:1] z8 | 
[V:2] (3:2:5E3FG2A4E2- | 
[V:3] z8 | 
[V:4] (3:2:4A4G2F2E4 | 
[V:5] z8 | 
[V:6] (3:2:5C,3D,E,2A,,4C,2- | 
[V:1] z4(3c2c2c2 | 
[V:2] (3:2:4E2F4E4E2 | 
[V:3] (3c2c2c2(3A3Bc2 | 
[V:4] (3A4A4E4 | 
[V:5] z8 | 
[V:6] (3:2:2C,2F,,4C,4 | 
[V:1] (3:2:5A3Bc2d4A2- | 
[V:2] (3:2:4F4E2D4C2 | 
[V:3] (3:2:4d4c2B2A4 | 
[V:4] (3:2:5A4A2F3GA2 | 
[V:5] (3:2:5F,3G,A,2D,4F,2- | 
[V:6] z8 | 
[V:1] (3:2:4A2_B4A4A2 | 
[V:2] D8 | 
[V:3] (3d4d4A4 | 
[V:4] D8 | 
[V:5] (3:2:2F,2_B,,4F,4 | 
[V:6] z8 | 
[V:1] (3:2:4_B4A2G4^F2 | 
[V:2] z8 | 
[V:3] (3:2:5d4d2B3cd2 | 
[V:4] z8 | 
[V:5] z8 | 
[V:6] z8 | 
[V:1] G8 | 
[V:2] D4D2D2 | 
[V:3] G8 | 
[V:4] D4G4 | 
[V:5] z8 | 
[V:6] G,,4G,,3A,, | 
[V:1] z8 | 
[V:2] B,2E3DD2 | 
[V:3] z8 | 
[V:4] G2E2F4 | 
[V:5] z8 | 
[V:6] B,,2C,4B,,2 | 
[V:1] G4G2G2 | 
[V:2] E8 | 
[V:3] G4c4 | 
[V:4] E8 | 
[V:5] C,4C,3D, | 
[V:6] C,8 | 
[V:1] E2A3GG2 | 
[V:2] z8 | 
[V:3] c2A2B4 | 
[V:4] z4G4 | 
[V:5] E,2F,4E,2 | 
[V:6] z8 | 
[V:1] A8 | 
[V:2] z4A4 | 
[V:3] A8 | 
[V:4] c3cc2A2- | 
[V:5] F,8 | 
[V:6] z2F,4E,D, | 
[V:1] z8 | 
[V:2] A2A2A4 | 
[V:3] z4c4 | 
[V:4] AGF2E4 | 
[V:5] z8 | 
[V:6] C,2D,2A,,4 | 
[V:1] z4d4 | 
[V:2] F2DEFGAB | 
[V:3] f3ff2d2- | 
[V:4] D8- | 
[V:5] z2_B,4A,G, | 
[V:6] z4D,4- | 
[V:1] d2d2d4 | 
[V:2] A2G4^F2 | 
[V:3] dcB2A4 | 
[V:4] D8 | 
[V:5] F,2G,2D,4 | 
[V:6] D,2G,,2D,4 | 
[V:1] B2GABcde | 
[V:2] G4D2G2- | 
[V:3] G8- | 
[V:4] z8 | 
[V:5] z4G,4- | 
[V:6] G,,8 | 
[V:1] d2c4B2 | 
[V:2] G2FED4 | 
[V:3] G8 | 
[V:4] z4D4 | 
[V:5] G,2C,2G,4 | 
[V:6] z4G,,4 | 
[V:1] c4G2c2- | 
[V:2] C3DEFE2- | 
[V:3] z8 | 
[V:4] E6C2 | 
[V:5] C,8 | 
[V:6] C,6A,,2 | 
[V:1] c2BAG4 | 
[V:2] E2D3^CC2 | 
[V:3] z4G4 | 
[V:4] E2F2G2E2 | 
[V:5] z4C,4 | 
[V:6] C,2D,2E,4 | 
[V:1] F3GA_BA2- | 
[V:2] D8 | 
[V:3] A6F2 | 
[V:4] F8 | 
[V:5] F,6D,2 | 
[V:6] D,8 | 
[V:1] A2G3^FF2 | 
[V:2] z8 | 
[V:3] A2B2c2A2 | 
[V:4] z8 | 
[V:5] F,2G,2A,4 | 
[V:6] z8 | 
[V:1] G8 | 
[V:2] z2G2G2G2 | 
[V:3] B8 | 
[V:4] z4z2G2 | 
[V:5] G,8 | 
[V:6] G,,4G,,2G,,2 | 
[V:1] z8 | 
[V:2] E2G3FED | 
[V:3] z8 | 
[V:4] G2G2G2G2 | 
[V:5] z8 | 
[V:6] C,4B,,4 | 
[V:1] z2c2c2c2 | 
[V:2] C3DE2F2- | 
[V:3] z4z2c2 | 
[V:4] E2E2C4 | 
[V:5] C,4C,2C,2 | 
[V:6] A,,4A,,4 | 
[V:1] A2c3BAG | 
[V:2] F2EDCDEC | 
[V:3] c2c2c2c2 | 
[V:4] z4E4 | 
[V:5] F,4E,4 | 
[V:6] A,,8 | 
[V:1] F3GA2_B2- | 
[V:2] D8- | 
[V:3] A2A2F4 | 
[V:4] F2A4d2- | 
[V:5] D,4D,4 | 
[V:6] z2D,3C,B,,A,, | 
[V:1] B2AG^FGAF | 
[V:2] D8 | 
[V:3] z4A4 | 
[V:4] dcB2A4 | 
[V:5] D,8- | 
[V:6] G,,4D,4 | 
[V:1] G8- | 
[V:2] D8- | 
[V:3] B8- | 
[V:4] G8- | 
[V:5] D,8- | 
[V:6] G,,8- | 
[V:1] G8 | 
[V:2] D8- | 
[V:3] B8- | 
[V:4] G8 | 
[V:5] D,8- | 
[V:6] G,,8- | 
[V:1] G8 |]  
[V:2] D8 |]  
[V:3] B8 |]  
[V:4] G8 |]  
[V:5] D,8 |]  
[V:6] G,,8 |]  



